app/assets/images/check-email.svg

<svg xmlns="http://www.w3.org/2000/svg" viewBox="0 0 96 96"><defs><linearGradient id="a" x1="20.07" y1="11.02" x2="72.88" y2="80.95" gradientUnits="userSpaceOnUse"><stop offset="0" stop-color="#99d7f4"/><stop offset="1" stop-color="#00bfe7"/></linearGradient><linearGradient id="b" x1="81.95" y1="83.84" x2="46.18" y2="45.19" gradientUnits="userSpaceOnUse"><stop offset="0" stop-color="#009ae3" stop-opacity="0"/><stop offset="1" stop-color="#009ae3"/></linearGradient><linearGradient id="c" x1="89.78" y1="95.43" x2="5.03" y2="-.78" gradientUnits="userSpaceOnUse"><stop offset="0" stop-color="#0071bb"/><stop offset="1" stop-color="#99d7f4"/></linearGradient></defs><rect width="96" height="96" rx="8" ry="8" fill="url(#a)"/><path d="M41.65 52.16L18.23 68l28 28H88a8 8 0 008-8V46L77.11 27.15z" fill="url(#b)"/><circle cx="87" cy="87" r="3" fill="#009ae3"/><circle cx="9" cy="87" r="3" fill="#009ae3"/><circle cx="87" cy="9" r="3" fill="#009ae3"/><circle cx="9" cy="9" r="3" fill="#009ae3"/><path d="M88 2a6 6 0 016 6v80a6 6 0 01-6 6H8a6 6 0 01-6-6V8a6 6 0 016-6h80m0-2H8a8 8 0 00-8 8v80a8 8 0 008 8h80a8 8 0 008-8V8a8 8 0 00-8-8z" fill="url(#c)"/><path d="M74.91 26.34H21.09a3 3 0 00-3 3L43 57.15 18.09 38.86v27.8a3 3 0 003 3h53.82a3 3 0 003-3v-27.8l-25 18.35 25-27.87a3 3 0 00-3-3z" fill="#fff"/><path fill="#d1f0ff" d="M18.09 32.27v7.45l24.87 17.72-24.87-25.17zm59.82 0v7.45L53.04 57.44l24.87-25.17z"/><path d="M77.91 29.34a2.81 2.81 0 00-.06-.59L58.44 48.16l-2.12 2.12L52.6 54a6.49 6.49 0 01-9.2 0l-3.72-3.72-2.12-2.12-19.41-19.41a2.81 2.81 0 00-.06.59v3.59l17.35 17.35-17.23 17.24a3.08 3.08 0 00.79 1.31 2.8 2.8 0 001.37.75l17.19-17.17 3.72 3.72a9.51 9.51 0 0013.44 0l3.72-3.72 17.17 17.17a2.79 2.79 0 001.39-.75 3.06 3.06 0 00.81-1.32L60.56 50.28l17.35-17.35v-3.59z" fill="#009ae3"/></svg>

<svg xmlns="http://www.w3.org/2000/svg" xmlns:xlink="http://www.w3.org/1999/xlink" viewBox="0 0 96 96"><defs><linearGradient id="linear-gradient" x1="20.07" y1="11.02" x2="72.88" y2="80.95" gradientUnits="userSpaceOnUse"><stop offset="0" stop-color="#99d7f4"/><stop offset="1" stop-color="#00bfe7"/></linearGradient><linearGradient id="linear-gradient-2" x1="81.95" y1="83.84" x2="46.18" y2="45.19" gradientUnits="userSpaceOnUse"><stop offset="0" stop-color="#009ae3" stop-opacity="0"/><stop offset="1" stop-color="#009ae3"/></linearGradient><linearGradient id="linear-gradient-3" x1="89.78" y1="95.43" x2="5.03" y2="-0.78" gradientUnits="userSpaceOnUse"><stop offset="0" stop-color="#0071bb"/><stop offset="1" stop-color="#99d7f4"/></linearGradient></defs><title>mail</title><g id="Layer_2" data-name="Layer 2"><g id="Layer_1-2" data-name="Layer 1"><rect width="96" height="96" rx="8" ry="8" fill="url(#linear-gradient)"/><path d="M41.65,52.16,18.23,68l28,28L88,96a8,8,0,0,0,8-8V46L77.11,27.15Z" fill="url(#linear-gradient-2)"/><circle cx="87" cy="87" r="3" fill="#009ae3"/><circle cx="9" cy="87" r="3" fill="#009ae3"/><circle cx="87" cy="9" r="3" fill="#009ae3"/><circle cx="9" cy="9" r="3" fill="#009ae3"/><path d="M88,2a6,6,0,0,1,6,6V88a6,6,0,0,1-6,6H8a6,6,0,0,1-6-6V8A6,6,0,0,1,8,2H88m0-2H8A8,8,0,0,0,0,8V88a8,8,0,0,0,8,8H88a8,8,0,0,0,8-8V8a8,8,0,0,0-8-8Z" fill="url(#linear-gradient-3)"/><path d="M74.91,26.34H21.09a3,3,0,0,0-3,3L43,57.15,18.09,38.86v27.8a3,3,0,0,0,3,3H74.91a3,3,0,0,0,3-3V38.86l-25,18.35,25-27.87A3,3,0,0,0,74.91,26.34Z" fill="#fff"/><polygon points="18.09 32.27 18.09 39.72 42.96 57.44 18.09 32.27" fill="#d1f0ff"/><polygon points="77.91 32.27 77.91 39.72 53.04 57.44 77.91 32.27" fill="#d1f0ff"/><path d="M77.91,29.34a2.81,2.81,0,0,0-.06-.59L58.44,48.16l-2.12,2.12L52.6,54a6.49,6.49,0,0,1-9.2,0l-3.72-3.72-2.12-2.12L18.15,28.75a2.81,2.81,0,0,0-.06.59v3.59L35.44,50.28,18.21,67.52A3.08,3.08,0,0,0,19,68.83a2.8,2.8,0,0,0,1.37.75L37.56,52.41l3.72,3.72a9.51,9.51,0,0,0,13.44,0l3.72-3.72L75.61,69.58A2.79,2.79,0,0,0,77,68.83a3.06,3.06,0,0,0,.81-1.32L60.56,50.28,77.91,32.93V29.34Z" fill="#009ae3"/></g></g></svg>
